svg/600/rounded/factory-fill.svg

<svg xmlns="http://www.w3.org/2000/svg" width="48" height="48" viewBox="0 -960 960 960"><path d="M146.218-67q-32.914 0-56.066-23.152-23.153-23.152-23.153-56.066v-370.825Q67-540.696 80.391-561q13.391-20.305 35.479-29.566l207.217-87.826q18.392-7.696 34.153 3.065t15.761 29.587v26.522l145.434-58.913q20.087-7.696 37.326 4.13 17.24 11.827 17.24 32.914v68.086h320v426.783q0 32.914-23.153 56.066-23.152 23.153-56.066 23.153H146.218Zm297.564-173h72.436v-160h-72.436v160Zm-166.783 0H350v-160h-73.001v160ZM610-240h73.001v-160H610v160Zm278.001-373.001H703.304l30.87-242.129q2-14.957 12.543-24.718 10.544-9.761 25.501-9.761h44.608q14.957 0 26.066 9.478 11.109 9.479 13.109 24.435l32 242.695Z"/></svg>

<svg xmlns="http://www.w3.org/2000/svg" width="48" height="48" viewBox="0 -960 960 960"><path d="M146.22-67q-32.92 0-56.07-23.15T67-146.22v-370.82Q67-540.7 80.39-561t35.48-29.57l207.22-87.82q18.39-7.7 34.15 3.06Q373-664.57 373-645.74v26.52l145.43-58.91q20.09-7.7 37.33 4.13T573-641.09V-573h320v426.78q0 32.92-23.15 56.07T813.78-67H146.22Zm297.56-173h72.44v-160h-72.44v160ZM277-240h73v-160h-73v160Zm333 0h73v-160h-73v160Zm278-373H703.3l30.87-242.13q2-14.96 12.55-24.72 10.54-9.76 25.5-9.76h44.61q14.95 0 26.06 9.48T856-855.7L888-613Z"/></svg>
